local/share/icons/dracula-icons-main/scalable/apps/securecrt.svg

<?xml version="1.0" encoding="UTF-8"?>
<svg xmlns="http://www.w3.org/2000/svg" xmlns:xlink="http://www.w3.org/1999/xlink" width="64" height="64" viewBox="0 0 64 64">
<path fill-rule="nonzero" fill="rgb(44.705882%, 47.058824%, 49.411765%)" fill-opacity="1" d="M 32 5 C 46.910156 5 59 17.089844 59 32 C 59 46.910156 46.910156 59 32 59 C 17.089844 59 5 46.910156 5 32 C 5 17.089844 17.089844 5 32 5 Z M 32 5 "/>
<path fill-rule="nonzero" fill="rgb(100%, 100%, 100%)" fill-opacity="1" d="M 23 36 L 36.996094 36 C 37.550781 36 38 36.449219 38 37 C 38 37.550781 37.550781 38 36.996094 38 L 23 38 C 22.449219 38 22 37.550781 22 37 C 22 36.449219 22.449219 36 23 36 Z M 23 36 "/>
<path fill-rule="nonzero" fill="rgb(100%, 100%, 100%)" fill-opacity="1" d="M 17.015625 17.859375 C 16.613281 17.808594 16.226562 18 16.023438 18.347656 C 15.890625 18.578125 15.851562 18.851562 15.921875 19.109375 C 15.992188 19.367188 16.160156 19.585938 16.390625 19.71875 L 27.132812 25.917969 L 16.390625 32.117188 C 16.160156 32.25 15.992188 32.46875 15.921875 32.726562 C 15.851562 32.984375 15.890625 33.257812 16.023438 33.488281 C 16.304688 33.964844 16.910156 34.128906 17.390625 33.851562 L 29.511719 26.851562 C 29.8125 26.675781 29.996094 26.351562 29.992188 26.003906 C 30 25.972656 29.996094 25.945312 30 25.917969 C 30 25.890625 30 25.863281 29.992188 25.832031 C 29.992188 25.484375 29.8125 25.164062 29.511719 24.984375 L 17.390625 17.984375 C 17.277344 17.917969 17.148438 17.875 17.015625 17.859375 Z M 17.015625 17.859375 "/>
<path fill-rule="nonzero" fill="rgb(19.607843%, 65.882353%, 100%)" fill-opacity="1" d="M 59 47.003906 C 59 53.628906 53.628906 59.003906 47 59.003906 C 40.371094 59.003906 35 53.628906 35 47.003906 C 35 40.375 40.371094 35.003906 47 35.003906 C 53.628906 35.003906 59 40.375 59 47.003906 Z M 59 47.003906 "/>
<path fill-rule="nonzero" fill="rgb(100%, 100%, 100%)" fill-opacity="1" d="M 41 41 L 41 42 C 41 42.550781 41.453125 43 42 43 C 46.96875 43 51 47.03125 51 52 C 51 52.550781 51.453125 53 52 53 L 53 53 L 53 52 C 53 45.925781 48.074219 41 42 41 Z M 41 45 L 41 46 C 41 46.550781 41.453125 47 42 47 C 44.761719 47 47 49.238281 47 52 C 47 52.550781 47.453125 53 48 53 L 49 53 L 49 52 C 49 48.132812 45.867188 45 42 45 Z M 43 49.003906 C 41.894531 49.003906 41 49.898438 41 51.003906 C 41 52.105469 41.894531 53.003906 43 53.003906 C 44.105469 53.003906 45 52.105469 45 51.003906 C 45 49.898438 44.105469 49.003906 43 49.003906 Z M 43 49.003906 "/>
</svg>

<svg id="Iterm" width="64" height="64" enable-background="new 0 0 1024 1024" image-rendering="optimizeSpeed" version="1.1" viewBox="0 0 64 64" xmlns="http://www.w3.org/2000/svg">
 <mask>
  <g id="g">
   <path d="m969.75 392.05c-1.1-4.35-2.35-9-3.65-13.6-1-3.4-2-6.85-3.15-10.5-1.6-5.15-3.4-10.5-5.3-15.85-6.45-18.25-14.15-36.05-23.15-53.65-3.8-7.4-7.95-14.95-12.3-22.4-20.3-34.5-45.8-67.2-76.35-97.75-72.6-72.6-157.15-116.65-253.65-132.05-16.25-2.6-32.8-4.4-50.05-5.35-9.7-0.55-19.85-0.85-30.1-0.85-9.35 0-18.6 0.25-27.9 0.75-118.35 6.1-220.3 51.95-305.85 137.5q-138.25 138.25-138.25 333.75c0 130.35 46.1 241.65 138.25 333.8 56.7 56.65 120.55 95.9 191.1 117.55 36.75 11.25 74.8 17.85 114.75 19.95h0.4c8.5 0.45 16.6 0.7 24.5 0.7h3c10.3 0 20.5-0.3 30.1-0.8 2.5-0.15 4.75-0.3 6.95-0.45 20.2-1.45 39.9-4.05 58.7-7.7 7.95-1.55 15.8-3.3 23.4-5.15 80.8-20.3 152.15-61.6 214.65-124.1 48.6-48.6 84.4-102.5 107.35-161.8 18.45-47.65 28.65-98.8 30.55-153.5 0.2-6.05 0.3-12.25 0.3-18.5v-3c-0.2-40.65-4.95-79.5-14.3-117z" fill="#fff"/>
  </g>
 </mask>
 <rect x="5" y="5" width="54" height="54" rx="27" ry="27" fill="#72787e" stroke-width="4.0212"/>
 <rect x="22" y="36" width="15.999" height="1.9994" ry="1.0016" fill="#ffffff" stroke-width="3.7796" paint-order="stroke markers fill"/>
 <path d="m17.014 17.858a0.99781 0.99781 0 0 0-0.99026 0.49135 0.99781 0.99781 0 0 0 0.36662 1.3682l10.742 6.1985-10.742 6.2023a0.99781 0.99781 0 0 0-0.36662 1.3682c0.27969 0.48001 0.88821 0.64253 1.3682 0.36662l12.121-6.9998a0.9827 0.9827 0 0 0 0.48001-0.85041c0.0076-0.03024 0.0038-0.05669 0.0076-0.08315 0-0.03024 0-0.05669-0.0076-0.08693a0.9827 0.9827 0 0 0-0.48001-0.84663l-12.121-7.0036a1.0054 1.0054 0 0 0-0.37796-0.12473z" fill="#ffffff" stroke-width="3.7796" paint-order="stroke markers fill"/>
 <circle cx="47" cy="47.002" r="12" fill="#32a8ff" stroke-width="2"/>
 <path d="m41 41v1c0 0.55 0.454 1 1 1 4.97 0 9 4.03 9 9 0 0.55 0.454 1 1 1h1v-1c0-6.0752-4.9248-11-11-11zm0 4v1c0 0.55 0.454 1 1 1 2.762 0 5 2.238 5 5 0 0.55 0.454 1 1 1h1v-1c0-3.866-3.134-7-7-7zm2 4.002c-1.1046 0-2 0.89544-2 2s0.89544 2 2 2 2-0.89544 2-2-0.8954-2-2-2z" fill="#ffffff" stroke-width="2"/>
</svg>
